build/communication/WechatSolid.svg

<svg xmlns="http://www.w3.org/2000/svg" fill="none" viewBox="0 0 24 24" focusable="false"><path d="M0 0H24V24H0z"/><path fill="#74767B" fill-rule="evenodd" d="M3 10.4492C3 7.41699 5.89795 5 9.48975 5C12.7551 5 15.4487 7.00742 15.8992 9.58929L15.5317 9.58929C12.2666 9.58929 9.61328 11.8013 9.61328 14.5463C9.61475 15.007 9.68286 15.4576 9.81738 15.8981L9.4502 15.8981C8.71533 15.8981 7.98047 15.8162 7.32764 15.6112C7.26221 15.5851 7.19409 15.5715 7.12354 15.5704C7.00122 15.5704 6.91968 15.5704 6.79688 15.6523L5.36743 16.4722C5.33008 16.4968 5.28931 16.5105 5.24463 16.5133C5.21704 16.5149 5.19043 16.5108 5.16455 16.5009C5.13867 16.4911 5.11621 16.4764 5.09668 16.4568Q5.08201 16.442 5.07101 16.4249Q5.06005 16.4079 5.05273 16.3885C5.04297 16.3627 5.03906 16.3359 5.04077 16.3083C5.04077 16.2676 5.07495 16.1797 5.08154 16.1445C5.08838 16.1094 5.24463 15.4463 5.36743 15.0367C5.38574 14.9857 5.39355 14.9331 5.39062 14.8789C5.39062 14.8086 5.36743 14.6272 5.24463 14.546C3.85718 13.5627 3 12.0879 3 10.4492ZM7.15869 9.57233C7.21411 9.58313 7.27026 9.58844 7.32666 9.58826C7.38306 9.5878 7.43872 9.58051 7.4939 9.56918C7.54907 9.55786 7.60254 9.54132 7.6543 9.51953Q7.69858 9.50097 7.74027 9.47776Q7.77201 9.46008 7.80225 9.4397C7.84888 9.40826 7.89209 9.37262 7.93188 9.33273C7.97168 9.29285 8.00708 9.24951 8.03833 9.2027C8.06958 9.15588 8.09619 9.10648 8.11768 9.0545C8.13916 9.00253 8.15552 8.94894 8.16675 8.89377C8.17798 8.83859 8.18359 8.78284 8.18384 8.72656C8.18359 8.67004 8.17798 8.61411 8.16699 8.55869C8.15576 8.5033 8.1394 8.44949 8.11768 8.39731C8.09595 8.34515 8.06934 8.29559 8.03784 8.24869C8.00635 8.20175 7.9707 8.15836 7.93066 8.11847C7.89062 8.07858 7.84692 8.043 7.80005 8.01169C7.75293 7.98041 7.70337 7.95398 7.65112 7.93246C7.59888 7.91098 7.54492 7.89474 7.4895 7.88385C7.43408 7.87296 7.37793 7.86758 7.32153 7.86771C7.26489 7.86783 7.20898 7.87347 7.15356 7.88464C7.09814 7.89578 7.04443 7.91226 6.99243 7.93402C6.94019 7.95575 6.89062 7.98239 6.84375 8.01392C6.79688 8.04544 6.75342 8.08124 6.71362 8.12128C6.67383 8.16135 6.63818 8.20493 6.60693 8.25198C6.57568 8.29907 6.54932 8.34875 6.52783 8.401C6.50635 8.45328 6.49023 8.50714 6.47925 8.56259C6.46851 8.61807 6.46313 8.67404 6.46313 8.73056C6.46338 8.78708 6.46899 8.84302 6.48022 8.89841C6.49146 8.9538 6.50806 9.00757 6.52979 9.05969C6.55151 9.11185 6.57812 9.16135 6.60986 9.20825C6.64136 9.25513 6.67725 9.29849 6.71729 9.33832C6.75732 9.37814 6.80103 9.41367 6.84814 9.44489C6.89502 9.47614 6.94482 9.50247 6.99707 9.52393C7.04932 9.54535 7.10327 9.56149 7.15869 9.57233ZM11.4851 9.57172C11.5405 9.58273 11.5964 9.58826 11.6531 9.58826C12.1428 9.58826 12.5508 9.17868 12.51 8.72797C12.51 8.27725 12.1021 7.86771 11.6531 7.86771C11.5964 7.86771 11.5405 7.8732 11.4851 7.88422C11.4297 7.89523 11.376 7.91156 11.3237 7.93317C11.2717 7.9548 11.2219 7.98129 11.175 8.01266C11.1282 8.04407 11.0847 8.07971 11.0447 8.11966Q11.0107 8.15353 10.981 8.19076Q10.9581 8.2194 10.9377 8.25003C10.9062 8.297 10.8799 8.34656 10.8582 8.39874C10.8367 8.45093 10.8203 8.50473 10.8093 8.56015C10.7983 8.61554 10.7927 8.67148 10.7927 8.72797C10.7927 8.78445 10.7983 8.84039 10.8093 8.89581C10.8203 8.9512 10.8367 9.005 10.8582 9.05719C10.8799 9.10938 10.9062 9.15894 10.9377 9.2059Q10.9581 9.23653 10.981 9.26517Q11.0107 9.3024 11.0447 9.33627C11.0847 9.37622 11.1282 9.41187 11.175 9.44327C11.2219 9.47464 11.2717 9.50113 11.3237 9.52277C11.376 9.54437 11.4297 9.5607 11.4851 9.57172ZM19.1223 17.9864C20.2651 17.1669 21 15.9382 21 14.5453C21 12.0464 18.5918 9.9978 15.5715 9.9978C12.5513 9.9978 10.1426 12.0464 10.1426 14.5453C10.1426 17.0442 12.5508 19.0924 15.5715 19.0924C16.1836 19.0924 16.7959 19.0105 17.3264 18.8463C17.4141 18.816 17.449 18.8051 17.4897 18.8051C17.592 18.8076 17.6875 18.835 17.7754 18.8874L18.9609 19.5839C18.9995 19.6041 19.0403 19.6178 19.0833 19.625C19.1272 19.622 19.1648 19.6049 19.1958 19.5738C19.2268 19.5426 19.2439 19.5051 19.2468 19.4612C19.2441 19.4147 19.2351 19.3694 19.2197 19.3255C19.2053 19.2741 19.0439 18.763 18.9609 18.4371C18.9534 18.3968 18.9495 18.3561 18.9492 18.3151C18.9497 18.2492 18.9656 18.1872 18.9966 18.129C19.0278 18.0709 19.0679 18.0234 19.1223 17.9864ZM13.6964 13.8038L13.6961 13.8038Q13.6635 13.8004 13.6311 13.7942C13.5835 13.7849 13.5374 13.7711 13.4924 13.7527C13.4475 13.7343 13.4048 13.7118 13.3643 13.685C13.3237 13.6582 13.2864 13.6277 13.252 13.5935C13.2175 13.5594 13.1868 13.5222 13.1597 13.4819C13.1326 13.4417 13.1096 13.3991 13.0908 13.3544C13.072 13.3096 13.0579 13.2635 13.0483 13.2159C13.0386 13.1683 13.0337 13.1203 13.0337 13.0718C13.0334 13.0233 13.0381 12.9752 13.0474 12.9276C13.0566 12.8799 13.0706 12.8337 13.0891 12.7888C13.1074 12.7439 13.1301 12.7013 13.157 12.6609Q13.1783 12.6288 13.2026 12.5993Q13.2244 12.5729 13.2485 12.5486C13.2827 12.5142 13.3201 12.4835 13.3604 12.4565C13.4006 12.4294 13.4431 12.4066 13.488 12.3879C13.5327 12.3692 13.5789 12.3551 13.6265 12.3456C13.6741 12.336 13.7222 12.3312 13.7708 12.3311C13.8193 12.3311 13.8672 12.3357 13.9148 12.3451C13.9624 12.3545 14.0088 12.3685 14.0535 12.387C14.0984 12.4055 14.1411 12.4282 14.1814 12.4552C14.2219 12.4821 14.2593 12.5127 14.2935 12.547C14.3279 12.5812 14.3584 12.6186 14.3855 12.6589C14.4124 12.6992 14.4353 12.7418 14.4539 12.7866C14.4724 12.8315 14.4866 12.8777 14.4958 12.9252C14.5054 12.9728 14.5103 13.0209 14.5103 13.0694C14.5105 13.1179 14.5061 13.1658 14.4971 13.2134C14.4878 13.261 14.4741 13.3072 14.4558 13.352C14.4375 13.3969 14.415 13.4395 14.3882 13.4798C14.3613 13.5202 14.3311 13.5575 14.2969 13.5919C14.2627 13.6262 14.2253 13.6568 14.1853 13.6838C14.145 13.7108 14.1025 13.7335 14.0576 13.752C14.0129 13.7705 13.9668 13.7845 13.9194 13.7939C13.8718 13.8032 13.8237 13.8078 13.7754 13.8077Q13.7357 13.8079 13.6964 13.8038ZM17.3672 13.8077C17.3188 13.8079 17.2708 13.8034 17.2231 13.7942C17.1755 13.7849 17.1292 13.7711 17.0842 13.7527C17.0393 13.7343 16.9966 13.7118 16.9563 13.685C16.9158 13.6582 16.8782 13.6277 16.8438 13.5935C16.8093 13.5594 16.7786 13.5222 16.7515 13.4819C16.7244 13.4417 16.7014 13.3991 16.6826 13.3544C16.6641 13.3096 16.6499 13.2635 16.6401 13.2159C16.6306 13.1683 16.6257 13.1203 16.6255 13.0718C16.6252 13.0233 16.6299 12.9752 16.6392 12.9276C16.6487 12.8799 16.6624 12.8337 16.6809 12.7888C16.6995 12.7439 16.7219 12.7013 16.7488 12.6609C16.7756 12.6204 16.8062 12.583 16.8406 12.5486C16.8748 12.5142 16.9121 12.4835 16.9524 12.4565C16.9927 12.4294 17.0352 12.4066 17.0798 12.3879C17.1248 12.3692 17.1709 12.3551 17.2185 12.3456C17.2661 12.336 17.314 12.3312 17.3625 12.3311C17.4111 12.3311 17.4592 12.3357 17.5068 12.3451C17.5544 12.3545 17.6006 12.3685 17.6455 12.387C17.6904 12.4055 17.7329 12.4282 17.7734 12.4552C17.8137 12.4821 17.8511 12.5127 17.8855 12.547C17.9197 12.5812 17.9504 12.6186 17.9773 12.6589C18.0044 12.6992 18.0271 12.7418 18.0457 12.7866C18.0645 12.8315 18.0784 12.8777 18.0879 12.9252C18.0974 12.9728 18.1021 13.0209 18.1021 13.0694C18.1025 13.1178 18.0979 13.1658 18.0889 13.2134C18.0796 13.2609 18.0659 13.3071 18.0476 13.352C18.0293 13.3968 18.0068 13.4394 17.98 13.4797C17.9534 13.5201 17.9229 13.5574 17.8887 13.5918C17.8545 13.6261 17.8174 13.6567 17.7771 13.6837Q17.7437 13.706 17.7082 13.7245L17.7082 13.7246Q17.6796 13.7395 17.6497 13.7519C17.6047 13.7704 17.5586 13.7844 17.5112 13.7938C17.4636 13.8032 17.4158 13.8078 17.3672 13.8077Z"/></svg>

<svg xmlns="http://www.w3.org/2000/svg" fill="none" viewBox="0 0 24 24" focusable="false"><path fill="none" d="M0 0h24v24H0z"/><path fill="#74767B" fill-rule="evenodd" d="M3 10.44C3 7.41 5.89 5 9.48 5c3.27 0 5.96 2 6.41 4.58h-.36c-3.27 0-5.92 2.22-5.92 4.96 0 .46.07.91.2 1.35h-.36c-.74 0-1.47-.08-2.13-.28a.45.45 0 0 0-.2-.04c-.12 0-.21 0-.33.08l-1.43.82c-.03.02-.08.04-.12.04-.03 0-.05 0-.08-.01s-.05-.03-.07-.05q-.01-.01-.02-.03l-.02-.04a.1.1 0 0 1-.01-.08c0-.04.03-.13.04-.16 0-.04.16-.7.28-1.11.02-.05.03-.1.03-.16 0-.07-.03-.25-.15-.33C3.85 13.56 3 12.08 3 10.44m4.15-.87c.06.01.12.01.17.01.06 0 .11 0 .17-.02.05-.01.11-.02.16-.05q.04-.01.09-.04.03-.01.06-.04c.04-.03.09-.06.13-.1s.07-.09.1-.13c.03-.05.06-.1.08-.15s.04-.11.05-.16c.01-.06.02-.11.02-.17 0-.05-.01-.11-.02-.17a1 1 0 0 0-.05-.16c-.02-.05-.05-.1-.08-.15-.03-.04-.06-.09-.1-.13s-.09-.07-.13-.1c-.05-.03-.1-.06-.15-.08-.06-.02-.11-.04-.17-.05a1 1 0 0 0-.16-.02 1 1 0 0 0-.17.02c-.06.01-.11.03-.16.05s-.1.05-.15.08-.09.07-.13.11-.08.08-.11.13a.5.5 0 0 0-.08.15c-.02.05-.03.1-.05.16-.01.05-.01.11-.01.17 0 .05 0 .11.02.16.01.06.02.11.04.16.03.06.05.11.08.15.04.05.07.09.11.13s.09.08.13.11c.05.03.1.06.15.08s.11.04.16.05m4.33 0c.06.01.11.01.17.01.49 0 .9-.41.86-.86 0-.45-.41-.86-.86-.86-.06 0-.11.01-.17.02s-.11.03-.16.05-.1.05-.15.08-.09.06-.13.1l-.06.08q-.03.02-.05.06c-.03.04-.06.09-.08.14-.02.06-.03.11-.05.17-.01.05-.01.11-.01.16 0 .06 0 .12.01.17.02.06.03.11.05.16s.05.1.08.15q.02.03.05.06.03.04.06.07c.04.04.08.08.13.11s.1.06.15.08.1.04.16.05M21 14.54c0 1.39-.74 2.62-1.88 3.44-.06.04-.1.09-.13.14-.03.06-.05.12-.05.19 0 .04.01.08.02.12.08.33.24.84.25.89.02.04.03.09.03.14 0 .04-.02.08-.05.11a.16.16 0 0 1-.11.05c-.04-.01-.09-.02-.12-.04l-1.19-.7a.6.6 0 0 0-.29-.08c-.04 0-.07.01-.16.04-.53.17-1.14.25-1.75.25-3.02 0-5.43-2.05-5.43-4.55s2.41-4.55 5.43-4.55S21 12.04 21 14.54m-7.31-.74h.08c.05 0 .1 0 .14-.01.05-.01.1-.02.14-.04.05-.02.09-.04.13-.07s.08-.06.11-.09c.04-.04.07-.07.09-.12.03-.04.05-.08.07-.12.02-.05.03-.09.04-.14s.02-.1.02-.15c0-.04-.01-.09-.02-.14a1 1 0 0 0-.04-.14c-.02-.04-.04-.09-.07-.13s-.06-.07-.09-.11c-.04-.03-.07-.06-.11-.09s-.09-.05-.13-.07a1 1 0 0 0-.14-.04c-.05-.01-.1-.01-.14-.01-.05 0-.1 0-.15.01s-.09.02-.14.04c-.04.02-.08.04-.12.07l-.12.09q-.02.03-.04.05-.03.03-.05.07c-.02.04-.05.08-.07.12-.01.05-.03.09-.04.14s-.01.1-.01.15 0 .09.01.14.03.09.05.14c.01.04.04.09.06.13a1 1 0 0 0 .21.2c.04.03.08.05.13.07.04.02.09.03.14.04q.03.01.06.01m3.53-.01c.05.01.09.01.14.01s.1 0 .15-.01c.04-.01.09-.02.13-.04q.03-.02.06-.03.04-.02.07-.04c.04-.03.08-.06.11-.09a.6.6 0 0 0 .1-.12l.06-.12c.02-.05.03-.09.04-.14s.02-.1.02-.15c0-.04-.01-.09-.02-.14a1 1 0 0 0-.04-.14c-.02-.04-.04-.09-.07-.13-.02-.04-.06-.07-.09-.11-.03-.03-.07-.06-.11-.09a.5.5 0 0 0-.13-.07c-.04-.02-.09-.03-.14-.04s-.09-.01-.14-.01-.1 0-.15.01c-.04.01-.09.02-.14.04-.04.02-.08.04-.12.07s-.08.06-.11.09c-.04.04-.07.08-.1.12-.02.04-.05.08-.06.12-.02.05-.04.09-.05.14s-.01.1-.01.15.01.09.02.14c0 .05.02.09.04.14.02.04.04.09.07.13.02.04.05.07.09.11.03.03.07.06.11.09s.08.05.13.07c.04.02.09.03.14.04"/></svg>
